X:1
T:The First Love Dream
M:4/4
L:1/8
K:G
 B2 d2 d B2 A| G2 E2 D2 DD| E2 GG A3 G|F-A A4 GA| B2 d2 B B2 A|G-A B2 A3 d|\
 ^c2 EE B A3| D6 FG| A2 B2 c3 A| GA Bc d2 DD| E2 G2 A3 G|F-A A4 GA|\
 B2 G3/2 G/2 G2 Bc| d2 g2 d2 DD| D3 DF E D2| G6 z2|
